static/xstate-logo-white-nobg.svg

<?xml version="1.0" encoding="UTF-8"?>
<svg width="800px" height="405px" viewBox="0 0 800 405" version="1.1" xmlns="http://www.w3.org/2000/svg" xmlns:xlink="http://www.w3.org/1999/xlink">
    <title>XState</title>
    <g id="Logos" stroke="none" stroke-width="1" fill="none" fill-rule="evenodd">
        <g id="white" fill="#FFFFFF" transform="translate(94.000000, 113.000000)">
            <path d="M248.952773,43.1397752 C269.733677,43.1397752 282.29238,51.906798 284.31118,67.826575 L284.37243,68.3066913 L272.489928,68.3066913 L272.416428,67.9735494 C270.076677,57.2199225 263.059876,52.6318717 248.952773,52.6318717 C236.15397,52.6318717 228.201269,57.9547945 228.201269,66.5209524 C228.201269,74.9768794 231.677819,79.2023934 252.272524,81.8993736 C273.808028,84.8388616 287.155631,90.232822 287.155631,107.994678 C287.155631,123.08405 271.892128,134.462318 251.655124,134.462318 C222.137517,134.462318 214.047616,119.025107 212.460015,106.071763 L212.401215,105.594096 L225.160818,105.594096 L225.214718,105.956633 C226.684718,115.833313 230.906069,124.972671 251.652674,124.972671 C264.831226,124.972671 274.393578,118.14326 274.393578,108.734449 C274.393578,98.7083457 268.734077,94.8551668 250.175323,92.2488208 C232.35647,89.8727347 215.867966,85.2332429 215.867966,67.51058 C215.867966,53.3887899 229.781519,43.1397752 248.952773,43.1397752 Z M371.528749,44.2494319 L371.528749,55.5664606 L341.981743,55.5664606 L341.981743,133.352661 L328.79094,133.352661 L328.79094,55.5664606 L299.243934,55.5664606 L299.243934,44.2494319 L371.528749,44.2494319 Z M424.43651,44.2494319 L459.145667,133.352661 L446.038164,133.352661 L436.091162,107.92609 L394.747404,107.92609 L384.947402,133.352661 L372.398499,133.352661 L407.680956,44.2494319 L424.43651,44.2494319 Z M533.263083,44.2494319 L533.263083,55.5664606 L503.716077,55.5664606 L503.716077,133.352661 L490.527724,133.352661 L490.527724,55.5689101 L460.980718,55.5689101 L460.980718,44.2518814 L533.263083,44.2518814 L533.263083,44.2494319 Z M615,44.2494319 L615,55.5664606 L565.68884,55.5664606 L565.68884,83.0065808 L590.715595,83.0065808 L590.715595,94.2011308 L565.68884,94.2011308 L565.68884,122.033183 L615,122.033183 L615,133.350211 L552.500487,133.350211 L552.500487,44.2494319 L615,44.2494319 Z M415.489108,54.7115595 L399.336255,97.7064702 L431.641961,97.7064702 L415.489108,54.7115595 L415.489108,54.7115595 Z" id="state"></path>
            <path d="M5.36289658,0.000339638022 L38.8274536,0.272242275 C42.0782395,0.298224393 45.1379106,1.81199651 47.1305054,4.38017671 L166.690531,158.436292 C169.400231,161.924484 166.911031,167 162.49858,167 L127.463572,167 C124.153622,167 121.032321,165.456769 119.02332,162.828377 L85.6788135,117.192826 L48.7744557,162.970452 C46.7597629,165.516033 43.6911801,167 40.444454,167 L5.31879657,167 C0.881845637,167 -1.59755488,161.877942 1.15379569,158.397098 L59.696558,84.2534136 L1.10234568,8.53465304 C-1.57795488,5.02441449 0.94799565,-0.0339543883 5.36534658,0.00278921133 L5.36289658,0.000339638022 Z M162.45448,0.000168973991 C166.913481,-0.0339543883 169.427181,5.10769999 166.66113,8.6032411 L114.42222,74.6094435 C110.695769,71.6773042 81.7784126,47.4681712 109.676569,15.0529676 C109.676569,15.0529676 111.859897,12.4994328 114.112032,9.85828289 L114.54822,9.34666074 L114.54822,9.34666074 L114.98272,8.83682365 C116.7128,6.80634291 118.320586,4.91405914 118.82487,4.30423994 C121.583571,0.965471521 123.854721,0.299187582 127.071572,0.274691849 L162.45448,0.000168973991 Z" id="x"></path>
        </g>
    </g>
</svg>

<svg xmlns="http://www.w3.org/2000/svg" width="615" height="167">
  <path fill="#FFF" d="M248.953 43.14c20.78 0 33.34 8.767 35.358 24.687l.061.48H272.49l-.074-.333c-2.34-10.754-9.356-15.342-23.463-15.342-12.799 0-20.752 5.323-20.752 13.89 0 8.455 3.477 12.68 24.072 15.378 21.535 2.939 34.883 8.333 34.883 26.095 0 15.09-15.264 26.467-35.5 26.467-29.518 0-37.608-15.437-39.196-28.39l-.059-.478h12.76l.054.363c1.47 9.876 5.691 19.016 26.438 19.016 13.178 0 22.74-6.83 22.74-16.238 0-10.026-5.659-13.88-24.218-16.486-17.819-2.376-34.307-7.016-34.307-24.738 0-14.122 13.914-24.371 33.085-24.371Zm122.576 1.11v11.317h-29.547v77.786H328.79V55.567h-29.547V44.25h72.285Zm52.908 0 34.709 89.103h-13.108l-9.947-25.427h-41.344l-9.8 25.427h-12.549l35.283-89.103h16.756Zm108.826 0v11.317h-29.547v77.786h-13.188V55.569H460.98V44.252h72.282v-.002Zm81.737 0v11.317h-49.311v27.44h25.027V94.2h-25.027v27.832H615v11.317h-62.5v-89.1H615ZM415.49 54.712l-16.154 42.995h32.306l-16.153-42.995ZM5.363 0l33.464.272a10.62 10.62 0 0 1 8.304 4.108l119.56 154.056c2.71 3.489.22 8.564-4.192 8.564h-35.035c-3.31 0-6.432-1.543-8.44-4.171l-33.345-45.636-36.905 45.778a10.623 10.623 0 0 1-8.33 4.03H5.32c-4.437 0-6.917-5.123-4.165-8.604l58.543-74.143L1.102 8.534C-1.578 5.025.948-.033 5.365.004L5.363.001Zm157.091 0c4.46-.034 6.973 5.108 4.207 8.603L114.422 74.61c-3.726-2.933-32.644-27.142-4.745-59.557 0 0 2.183-2.553 4.435-5.195l.436-.511.435-.51a676.11 676.11 0 0 0 3.842-4.533c2.759-3.338 5.03-4.005 8.247-4.03L162.454 0Z"/>
</svg>
